X: 1451
T: Anchor Steam, The
R: reel
M: 4/4
K: Amajor
"A" a3 g aece|"D" fedf "A" edcA|"Bm" Bffe f2 Bf|fedf "E" edcB|
"A" Aa-ag aece|"D" fedf "A" edcA|"Bm" B2GB AGFD|"E" EFGB A4|
"A" a3 g aece|"D" fedf "A" edcA|"Bm" Bffe f2 Bf|fedf "E" edcB|
"A" Aa-ag aece|"D" fedf "A" edcA|"Bm" B2GB AGFD|"E" EFGB A2||
AB|"A" c2 cd cBAc|"E" B2 Bc BAGB|"D" AGFE D2 d2-|dc-c2 "E" B2 AB|
"A" c2 cd cBAC|"E" B2 Bc BAGB|"D" AGFE D2 d2|"E" cABG "A" A2AB|
"A" c2 cd cBAc|"E" B2 Bc BAGB|"D" AGFE D2 d2-|dc-c2 "E" B2 AB|
"A" c2 cd cBAC|"E" B2 Bc BAGB|"D" AGFE D2 d2|"E" cABG "A" A4||

